X: 1
T: Dan R's Favourite
M: 6/8
L: 1/8
R: jig
K: Amaj
f|:ecA ABc | BGE E2 f | ecA Ace |fba {a}g2f|
ecA ABc | BGE E2 E| FGA {c}BGE |[1A3A2 f:|[2 A3A2 B ||
|:cAc ece| fff eaf | {f}ecA ABc | BGE E2 B| 
{d}cAc ece | fff  eaf | ecA  EFG | [1A3 A2 B:|  [2{B}A3 A3 ||
